X:1
T:Because You Live, O Christ
T:Because You Live, O Christ
T:17th Cent. Dutch tune, harm. Alice Parker, 1969
T:Shirley Erena Murray, 1987
T:© 1987 Hope Publishing Company, Carol Stream, Illinois Courtesy of the Cyber Hymnal™
T:© 1987 Hope Publishing Company, Carol Stream, Illinois Courtesy of the Cyber Hymnal™
C:17th Cent. Dutch tune, harm. Alice Parker, 1969
Z:© 1987 Hope Publishing Company, Carol Stream, Illinois
Z:Courtesy of the Cyber Hymnal™
%%score ( 1 2 ) ( 3 4 )
L:1/8
Q:1/4=113
M:none
K:Eb
V:1 treble 
V:2 treble 
V:3 bass 
V:4 bass 
V:1
 B,2 | E2 [DF]2 [EG]2 [EA]2 | [EB]6 [EB]2 | [Ec]3 [EB] [EA]2 [Ec]2 | [EB]3 [DA] [EG]2 (FE) | %5
w: 1.~Be-|cause You live, O|Christ, The|gar- den of the|world has come to *|
w: 2.~Be-|cause You live, O|Christ, The|spir- it bird of|hope is freed for *|
w: 3.~Be-|cause You live, O|Christ, The|rain- bow of Your|peace will span cre- *|
 F4 E6 B,2 | E2 [DF]2 [EG]2 [EA]2 | [EB]6 [EB]2 | [Ec]3 [EB] [EA]2 [Ec]2 | [EB]3 [DA] [EG]2 (FE) | %10
w: flow- er; The|dark- ness of the|tomb Is|flood- ed with Your|re- sur- rect- ion *|
w: fly- ing; Our|cag- es of des-|pair No|long- er keep us|closed and life- de- *|
w: a- tion, The|col- ors of Your|love Will|draw all hu- man-|kind to a- do- *|
 F4 E6 ||"^Refrain" E2 | [DF]2 [EG]2 [FA]2 [EG]2 | [DF]3 [EG] [EA]2 [EB]2 | [Ec]2 [EB]2 (B2 =A2) | %15
w: po- wer.|||||
w: ny- ing.|The|stone has rolled a-|way And death can-|not im- pri- *|
w: ra- tion.|||||
 [DB]6 [B,B]2 | [EA]2 [FA]2 [EG]2 [EG]2 | [DF]6 E2 | [B,D]2 [B,E]2 [DF]2 [EG]2 | %19
w: ||||
w: son! O|sing this East- er|Day, For|Je- sus Christ has|
w: ||||
 [FA]4 [DF]2 [DF]2 | [EB]4 [EG]2 [EG]2 | [Ec]4 [DB]2 [FB]2 | e3 d c2 BA | (G2 FE z2 D2) x2 | E6 |] %25
w: ||||||
w: ris- en, Has|ris- en, has|ris- en, has|ris- * * * *|en! * * *||
w: ||||||
V:2
 B,2 | E2 x6 | x8 | x8 | x6 E2 | (E2 D2) E6 B,2 | E2 x6 | x8 | x8 | x6 E2 | (E2 D2) E6 || E2 | x8 | %13
 x8 | x4 E4 | x8 | x8 | x6 E2 | x8 | x8 | x8 | x8 | E8 | E6 F4 | E6 |] %25
V:3
 B,,2 | E,2 [B,,B,]2 [E,B,]2 [F,B,]2 | [G,B,]6 [E,G,]2 | A,3 [G,B,] [F,C]2 A,2 | %4
 [G,B,]3 [F,B,] [E,B,]2 [B,,B,]2 | [B,,A,]4 [E,G,]6 B,,2 | E,2 [B,,B,]2 [E,B,]2 [F,B,]2 | %7
 [G,B,]6 [E,G,]2 | A,3 [G,B,] [F,C]2 A,2 | [G,B,]3 [F,B,] [E,B,]2 [B,,B,]2 | [B,,A,]4 [E,G,]6 || %11
 E,2 | [B,,B,]2 [E,B,]2 [D,B,]2 [E,B,]2 | [B,,B,]3 B, [A,C]2 [G,B,]2 | [E,G,]2 [E,G,]2 [F,C]4 | %15
 [B,,B,]6 [B,,B,]2 | [C,B,]2 [D,B,]2 [E,B,]2 [G,B,]2 | B,6 [B,,G,]2 | %18
 [B,,F,]2 [B,,G,]2 [B,,B,]2 [B,,B,]2 | [B,,F,]4 [B,,B,]2 [A,,B,]2 | [G,,B,]4 [C,E,]2 [B,,E,]2 | %21
 [A,,A,]4 [B,,F,]2 [A,,B,]2 | ([G,,B,]4 [A,,A,]4 | E,2 G,2 B,2 A,2) x2 | [E,G,]6 |] %25
V:4
 B,,2 | E,2 x6 | x8 | A,3 A,2 x3 | x8 | x10 B,,2 | E,2 x6 | x8 | A,3 A,2 x3 | x8 | x10 || E,2 | %12
 x8 | x3 B, x4 | x8 | x8 | x8 | B,6 x2 | x8 | x8 | x8 | x8 | x8 | B,,8 x2 | x6 |] %25

